!!!SOCIAL_FUNCTION:	songs for the entertainment of children
!!!PDT:	1929
!!!OTL: No_164_The_Robin_Brings_the_Cold_Wind.krn
!!!REG: Southwest
!!!LANG: Non-Tone
!!!LING_GROUP: Uto-Aztecan
**kern
*staff1
*clefF4
*k[b-e-]
*M2/4
8F\L
8F\J
=1
8c\L
8c\J
8c\L
8c\J
=2
4c\
8G\L
8G\J
=3||
*M3/4
8B-\L
8G\J
4B-\
8B-\L
8G\J
=4||
*M2/4
4B-\
8c\L
8G\J
=5||
*M3/8
8G\L
8F\
8F\J
=6||
*M2/4
4F\
8F\L
8F\J
=7
4F\
4r
=8||
*M3/4
8B-\L
8B-\J
8B-\L
8B-\J
8B-\L
8B-\J
=9
4G\
8D\L
8G\J
8G\L
8G\J
=10
2F\
8F\L
8F\J
=11||
*M2/4
4F\
4r
=12
8F\L
8F\J
8F\L
8F\J
=13
8F\L
8F\J
8F\L
8F\J
=14
4F\
4r
==
*-
